X:257
T: Zhai youcha
N: C0403
O: China,Jiangxi, Jingdezhen
S: IV, 210, 2)]
N: Aehnlich wie in Jiangsu und Zhejiang; enthaelt aber groessere
N: Spruenge.
N: Vereinzelt Verzierungen.
R: Shange. Zhai youcha qingjing]
M: 2/4
L: 1/16
K: A
B2c2BcA2 | B8 | c2BcBAF2 | B2A6 |
B2c2BcAB | F8 | A2B2BAF2 | EFE6 |
B2B2e2e2 | fec6 | B2e6 | F2AF-F4 |
c2BcBAF2 | E2F6 | E4F4 | EFE6

@@@ Tune index: 6258
